theta = 360 / 5

bool odd(int num) {
  num % 2 == 1
}

int pow(int a, int n) {
  if (n == 0)
    1
  else if (n == 1)
    a
  else let(b = pow(a, n/2)) {
    if (odd(n))
       b*b*a
    else
       b*b
  }
}

int tmain() {
  pendown(true);
  move(pow(2,5));
  rotate(theta);
  move(pow(2,4));
  rotate(theta);
  move(pow(2,3));
  rotate(theta);
  move(pow(2,2));
  rotate(theta);
  move(pow(2,1))
}
        